svgs/solid/trophy-star.svg

<svg xmlns="http://www.w3.org/2000/svg" viewBox="0 0 576 512"><!--! Font Awesome Pro 6.0.0-alpha3 by @fontawesome - https://fontawesome.com License - https://fontawesome.com/license (Commercial License) --><path d="M572.1 82.38C569.5 71.59 559.8 64 548.7 64h-100.8c.2422-12.45 .1076-23.7-.156-33.02C447.3 13.63 433.2 0 415.8 0H160.2c-17.35 0-31.43 13.63-31.92 30.98C127.1 40.3 127.8 51.55 128.1 64H27.26C16.16 64 6.537 71.59 3.912 82.38C3.1 85.78-15.71 167.2 37.07 245.9c37.44 55.82 100.6 95.03 187.5 117.4c18.7 4.805 31.41 22.06 31.41 41.37C256 428.5 236.5 448 212.6 448H208c-26.51 0-47.99 21.49-47.99 48c0 8.836 7.162 16 15.1 16H399.1c8.836 0 15.1-7.164 15.1-16c0-26.51-21.48-48-47.99-48h-4.644c-23.86 0-43.36-19.5-43.36-43.35c0-19.31 12.71-36.57 31.41-41.37c86.96-22.34 150.1-61.55 187.5-117.4C591.7 167.2 572.9 85.78 572.1 82.38zM77.41 219.8C49.47 178.6 47.01 135.7 48.38 112h80.39C134.1 171.6 149.1 243.1 186.4 301.1C137.4 281.6 100.8 254.4 77.41 219.8zM370 146.3l-36.34 35.3l8.58 49.98c.8945 5.227-4.584 9.207-9.273 6.742l-44.85-23.57L243.3 238.3C238.6 240.8 233.1 236.8 234 231.6l8.578-49.98L206.3 146.3C202.5 142.6 204.6 136.2 209.8 135.4l50.26-7.344l22.43-45.43c2.346-4.75 9.119-4.75 11.46 0l22.43 45.43l50.08 7.316C371.7 136.1 373.8 142.6 370 146.3zM498.6 219.8c-23.44 34.6-59.94 61.75-109 81.22C426.9 243.1 441.9 171.6 447.2 112h80.39C528.1 135.7 526.5 178.7 498.6 219.8z"/></svg>

<svg xmlns="http://www.w3.org/2000/svg" viewBox="0 0 576 512"><!-- Font Awesome Pro 6.0.0-alpha2 by @fontawesome - https://fontawesome.com License - https://fontawesome.com/license (Commercial License) --><path d="M572.088 82.375C569.463 71.594 559.838 64 548.745 64H447.854C448.096 51.547 448.02 40.305 447.756 30.977C447.266 13.633 433.098 0 415.751 0H160.249C142.902 0 128.734 13.633 128.244 30.977C127.98 40.305 127.904 51.547 128.146 64H27.255C16.162 64 6.537 71.594 3.912 82.375C3.1 85.781 -15.713 167.188 37.068 245.906C74.512 301.727 137.626 340.934 224.585 363.273C243.284 368.078 256.001 385.492 256.001 404.801C256.001 428.66 236.659 448 212.8 448H208.002C181.492 448 160.003 469.492 160.003 496C160.003 504.836 167.167 512 176.002 512H399.998C408.833 512 415.997 504.836 415.997 496C415.997 469.492 394.508 448 367.998 448H363.2C339.341 448 319.999 428.66 319.999 404.801C319.999 385.492 332.716 368.078 351.415 363.273C438.374 340.934 501.488 301.727 538.932 245.906C591.713 167.188 572.9 85.781 572.088 82.375ZM77.411 219.844C49.474 178.625 47.005 135.656 48.38 112H128.806C134.165 171.617 149.126 243.961 186.44 301.062C137.355 281.594 100.85 254.445 77.411 219.844ZM369.996 146.277L333.661 181.578L342.241 231.562C343.136 236.789 337.657 240.77 332.968 238.305L288.123 214.734L243.276 238.305C238.587 240.77 233.109 236.789 234.005 231.562L242.583 181.578L206.275 146.305C202.474 142.609 204.56 136.16 209.804 135.395L260.059 128.051L282.49 82.617C284.836 77.867 291.609 77.867 293.953 82.617L316.384 128.051L366.467 135.367C371.711 136.133 373.797 142.586 369.996 146.277ZM498.589 219.844C475.15 254.445 438.645 281.594 389.56 301.062C426.874 243.961 441.835 171.617 447.194 112H527.62C528.995 135.688 526.526 178.656 498.589 219.844Z"/></svg>
